tools/download-figma-icons/icons/outlined-medium/co2-footprint.svg

<svg width="24" height="24" viewBox="0 0 24 24" fill="none" xmlns="http://www.w3.org/2000/svg">
<path fill-rule="evenodd" clip-rule="evenodd" d="M10.8523 2.26718C10.6813 2.28218 10.5688 2.33918 10.5313 2.38568C10.4938 2.43218 10.4825 2.54017 10.5005 2.67592C10.544 3.00366 10.6865 3.00366 10.8125 3.00366C11.0592 3.00366 11.231 2.88892 11.339 2.78992C11.2925 2.60317 11.267 2.42168 11.2542 2.25668C11.1237 2.25818 10.9857 2.26118 10.8523 2.26718ZM13.5657 1.61244C13.4412 1.55244 13.2514 1.49244 12.9822 1.49994C12.8059 1.50144 12.7422 1.73094 12.7407 1.92743C12.7377 2.30167 12.8202 2.54616 12.8779 2.64291C13.1989 2.63166 13.3909 2.55966 13.5042 2.50117C13.4869 2.28742 13.4877 2.06168 13.5214 1.81868C13.5304 1.75268 13.5477 1.68294 13.5657 1.61244ZM15.3926 1.50372C15.1069 1.50372 15.0086 2.01746 15.0079 2.02271C14.9681 2.30845 14.9899 2.63169 15.0949 2.65719C15.3731 2.72394 15.5494 2.73294 15.6596 2.72619V2.72244C15.6596 2.50495 15.6971 2.2732 15.7721 2.03246C15.8096 1.89821 15.8546 1.77747 15.9071 1.65747C15.9071 1.65672 15.9079 1.65672 15.9079 1.65672C15.7564 1.57422 15.5741 1.50447 15.3934 1.50372H15.3926ZM17.6396 1.86817C17.6021 1.86817 17.5721 1.87492 17.5421 1.88242C17.4971 1.90492 17.3396 2.01816 17.2038 2.4749C17.0846 2.86564 17.2346 3.02989 17.2871 3.05314L17.2908 3.0545C17.5957 3.1653 17.7309 3.21445 18.0596 2.4974C18.0821 2.4374 18.1271 2.21316 18.0671 2.06241L18.0659 2.06016C18.0505 2.02914 18.0179 1.96346 17.8496 1.90492C17.7821 1.88242 17.7071 1.86817 17.6396 1.86817ZM12.221 4.0064C11.879 4.27489 11.405 4.50364 10.8125 4.50364C9.85102 4.50364 9.14454 3.8639 9.01404 2.87243C8.92029 2.16969 9.15054 1.70921 9.36053 1.44671C9.67402 1.05672 10.1563 0.822729 10.7555 0.77098C11.057 0.757481 11.3652 0.754481 11.5925 0.755231C11.9037 0.296992 12.3935 0.0037499 12.9709 0H12.9949C13.6137 0 14.0712 0.179245 14.3757 0.352491C14.6501 0.147746 14.9884 0.00824979 15.4016 0.0037499C16.0489 0.00749981 16.5918 0.292493 16.9271 0.525737C17.2346 0.37499 17.6996 0.277493 18.3146 0.479988C18.9828 0.697482 19.297 1.13247 19.4395 1.46321C19.702 2.06245 19.597 2.72993 19.4245 3.11317C18.9745 4.11815 18.3521 4.61988 17.5721 4.61988C17.3171 4.61988 17.0471 4.56738 16.7621 4.45564C16.5761 4.38814 16.4044 4.28314 16.2476 4.13464C16.0736 4.19014 15.8651 4.22914 15.6079 4.22914C15.3619 4.22914 15.0761 4.19614 14.7416 4.11515C14.5249 4.0619 14.3344 3.9704 14.1709 3.84815C13.8582 4.00415 13.4104 4.14439 12.7977 4.14439C12.5929 4.14439 12.3995 4.09415 12.221 4.0064ZM22.0571 5.52764C20.9321 6.59261 20.7071 6.48762 20.3697 6.18762C20.1597 6.00013 20.2639 5.33265 20.8121 4.53017C21.1496 4.02768 21.4196 3.76444 21.6071 3.73519H21.6364C21.7796 3.73519 21.9971 3.85518 22.2371 4.06518C22.4096 4.21518 22.4921 4.39517 22.4996 4.61267C22.5071 4.91941 22.3421 5.25015 22.0571 5.52764ZM23.2196 2.94024C22.6121 2.40775 22.0046 2.17526 21.4121 2.25026C20.5789 2.35525 20.0097 3.03774 19.5672 3.68272C18.5697 5.14518 18.5022 6.53265 19.3797 7.31263C19.8522 7.74012 20.3239 7.89761 20.7596 7.89761C21.2396 7.89761 21.6896 7.70187 22.0871 7.44012C22.4715 7.19356 22.7997 6.88389 23.0583 6.63994L23.0846 6.61514C23.6846 6.04441 24.0138 5.31018 23.9996 4.5827C23.9846 3.94521 23.7071 3.36023 23.2196 2.94024ZM16.0499 13.2824C12.3 14.8123 11.5343 16.9573 11.55 18.4797C11.565 19.7097 11.0025 21.3522 9.90007 22.0947C9.42758 22.4171 8.88684 22.5446 8.30261 22.4854C8.53435 21.8322 8.72935 20.8647 8.50435 19.7472C9.07434 19.1022 9.83257 17.9173 9.73507 16.3048C9.68257 15.4423 9.29183 14.3999 8.00936 13.4924C8.01686 13.2824 8.01686 13.0724 8.00936 12.8549L8.00806 12.7845C7.99367 12.0169 7.97585 11.0661 8.32436 9.47998C8.5501 8.49 9.05259 7.78502 9.86257 7.32753C10.5825 6.93004 11.4825 6.76504 12.3975 6.76504C13.395 6.76504 14.4142 6.96004 15.2542 7.25253C17.2266 7.94252 17.9624 9.38248 17.9849 10.5C18.0224 11.7299 17.2949 12.7724 16.0499 13.2824ZM6.09015 20.9772C6.44939 20.9397 6.79514 20.8647 7.10188 20.7522C7.10188 21.2547 6.99763 21.6897 6.89188 22.0047C6.51689 21.7647 6.2544 21.4422 6.11265 21.0372C6.1044 21.0222 6.0969 20.9997 6.09015 20.9772ZM1.52277 12.5099C2.59524 13.0573 3.81696 13.4323 4.57444 13.6273C5.17517 13.7848 5.81941 14.0023 6.39764 14.2798C6.89188 14.5198 7.33512 14.8123 7.66436 15.1573C7.9951 15.5098 8.20435 15.9148 8.2351 16.3948C8.28009 17.0622 8.09935 17.6172 7.8676 18.0522C7.60436 17.5947 7.27512 17.1522 6.88438 16.7248C6.53939 16.3648 6.15015 16.0198 5.70766 15.6898C5.46017 15.4948 5.19017 15.2998 4.90518 15.1198C4.55269 14.9023 4.0952 14.9998 3.87021 15.3448C3.64521 15.6973 3.74271 16.1548 4.0877 16.3798C4.46269 16.6273 4.80018 16.8672 5.09268 17.1222C5.59516 17.5347 5.9769 17.9472 6.2619 18.3522C6.49514 18.6672 6.65939 18.9672 6.78688 19.2597C6.58514 19.3572 6.32189 19.4397 6.0144 19.4697C5.62516 19.5297 5.16692 19.5072 4.71019 19.3872C4.65019 19.3722 4.58269 19.3497 4.52269 19.3272C3.75021 19.0722 2.78948 18.4572 2.2045 16.9722C1.52277 15.2398 1.46277 13.5598 1.52277 12.5099ZM15.7499 5.83506C13.965 5.21258 11.1668 4.89008 9.12757 6.02256C7.94185 6.68254 7.17762 7.74001 6.86263 9.15748C6.49514 10.8224 6.49514 11.8949 6.50939 12.6899C6.06015 12.5024 5.54191 12.3299 4.95768 12.1799C3.39772 11.7674 2.09275 11.2124 1.37277 10.6574C1.16203 10.4999 0.900282 10.4624 0.652789 10.5449C0.412045 10.6349 0.232799 10.8449 0.180301 11.0924C0.150301 11.2199 -0.479683 14.2423 0.810285 17.5198C1.47702 19.2297 2.72949 20.4072 4.31945 20.8347C4.33945 20.8391 4.36018 20.8442 4.38121 20.8494L4.38124 20.8494L4.38126 20.8494C4.43116 20.8617 4.48271 20.8744 4.53019 20.8797C4.56694 21.1122 4.62769 21.3372 4.70194 21.5479C5.03943 22.4921 5.72941 23.1896 6.75013 23.6104C6.80263 23.6321 6.86263 23.6546 6.91438 23.6696C6.95188 23.6921 6.99013 23.7071 7.02763 23.7146C7.59686 23.9171 8.1226 23.9996 8.59509 23.9996C9.51681 23.9996 10.2375 23.6846 10.74 23.3396C12.36 22.2446 13.0717 20.0997 13.05 18.4647C13.0342 16.9198 14.2349 15.6448 16.6199 14.6698C18.4348 13.9274 19.5366 12.3149 19.4848 10.4624C19.4541 9.43497 19.0873 8.47499 18.4416 7.67326C17.7974 6.87003 16.8749 6.22505 15.7499 5.83506Z" fill="black"/>
</svg>

<svg width="24" height="24" viewBox="0 0 24 24" fill="none" xmlns="http://www.w3.org/2000/svg"><path fill-rule="evenodd" clip-rule="evenodd" d="M10.852 2.267c-.17.015-.283.072-.32.119-.038.046-.05.154-.031.29.043.328.186.328.312.328a.765.765 0 0 0 .526-.214 3.255 3.255 0 0 1-.085-.533c-.13.001-.268.004-.402.01Zm2.714-.655a1.242 1.242 0 0 0-.584-.112c-.176.001-.24.23-.241.427-.003.375.08.62.137.716.32-.011.513-.083.626-.142a3.098 3.098 0 0 1 .017-.682c.01-.066.027-.136.045-.207Zm1.827-.108c-.286 0-.384.513-.385.519-.04.285-.018.609.087.634.278.067.454.076.565.07v-.005c0-.217.037-.449.112-.69.038-.134.083-.255.135-.375a1.124 1.124 0 0 0-.514-.153Zm2.247.364a.381.381 0 0 0-.098.014c-.045.023-.202.136-.338.593-.12.39.03.555.083.578l.004.002c.305.11.44.16.769-.558.022-.06.067-.284.007-.435l-.001-.002c-.015-.03-.048-.097-.216-.155a.688.688 0 0 0-.21-.037Zm-5.42 2.138a2.261 2.261 0 0 1-1.409.498c-.961 0-1.667-.64-1.798-1.632-.094-.702.137-1.163.347-1.425.313-.39.795-.624 1.394-.676a18.1 18.1 0 0 1 .837-.016c.312-.458.801-.751 1.379-.755h.024c.619 0 1.076.18 1.38.352a1.711 1.711 0 0 1 1.027-.348c.647.003 1.19.288 1.525.522.308-.151.773-.249 1.388-.046.668.217.982.652 1.124.983.263.6.158 1.267-.015 1.65-.45 1.005-1.072 1.507-1.852 1.507-.255 0-.525-.053-.81-.164a1.471 1.471 0 0 1-.514-.321 2.076 2.076 0 0 1-.64.094c-.246 0-.532-.033-.866-.114a1.571 1.571 0 0 1-.571-.267c-.313.156-.76.296-1.373.296-.205 0-.399-.05-.577-.138Zm9.836 1.522c-1.125 1.065-1.35.96-1.687.66-.21-.188-.106-.855.442-1.658.338-.502.608-.766.795-.795h.03c.143 0 .36.12.6.33.173.15.255.33.263.548.007.306-.158.637-.443.915ZM23.22 2.94c-.608-.532-1.215-.765-1.808-.69-.833.105-1.402.788-1.845 1.433-.997 1.462-1.065 2.85-.187 3.63.472.427.944.585 1.38.585.48 0 .93-.196 1.327-.458.384-.246.713-.556.971-.8l.027-.025c.6-.57.929-1.305.915-2.032a2.216 2.216 0 0 0-.78-1.643Zm-7.17 10.342c-3.75 1.53-4.516 3.675-4.5 5.198.015 1.23-.548 2.872-1.65 3.615a2.344 2.344 0 0 1-1.597.39c.231-.653.426-1.62.201-2.738.57-.645 1.329-1.83 1.231-3.442-.052-.863-.443-1.905-1.726-2.813.008-.21.008-.42 0-.637v-.07a12.548 12.548 0 0 1 .315-3.305c.226-.99.729-1.695 1.539-2.152.72-.398 1.62-.563 2.535-.563.997 0 2.016.195 2.856.488 1.973.69 2.708 2.13 2.73 3.247.038 1.23-.69 2.272-1.934 2.782Zm-9.96 7.695c.36-.037.705-.112 1.012-.225 0 .503-.104.938-.21 1.253a1.857 1.857 0 0 1-.78-.968.338.338 0 0 1-.022-.06ZM1.523 12.51c1.072.547 2.294.922 3.051 1.117.601.158 1.245.375 1.824.653.494.24.937.532 1.266.877.331.353.54.758.571 1.238a3.042 3.042 0 0 1-.367 1.657 7.575 7.575 0 0 0-.984-1.327 9.428 9.428 0 0 0-1.176-1.035 9.518 9.518 0 0 0-.803-.57.756.756 0 0 0-1.035.225.748.748 0 0 0 .218 1.035 9.45 9.45 0 0 1 1.005.742c.502.413.884.825 1.169 1.23.233.315.397.615.525.908-.202.097-.465.18-.773.21-.389.06-.847.037-1.304-.083a1.81 1.81 0 0 1-.187-.06c-.773-.255-1.734-.87-2.318-2.355-.682-1.732-.742-3.412-.682-4.462ZM15.75 5.835c-1.785-.622-4.583-.945-6.622.188-1.186.66-1.95 1.717-2.265 3.134-.368 1.665-.368 2.738-.354 3.533-.449-.188-.967-.36-1.551-.51-1.56-.413-2.865-.968-3.585-1.523a.775.775 0 0 0-.72-.112c-.241.09-.42.3-.473.547-.03.128-.66 3.15.63 6.428.667 1.71 1.92 2.887 3.51 3.315l.061.014c.05.013.102.025.15.03.036.233.097.458.17.669.338.944 1.028 1.642 2.05 2.062.052.022.112.045.163.06a.357.357 0 0 0 .114.045A4.678 4.678 0 0 0 8.595 24c.922 0 1.643-.315 2.145-.66 1.62-1.095 2.332-3.24 2.31-4.875-.016-1.545 1.185-2.82 3.57-3.795 1.815-.743 2.917-2.355 2.865-4.208a4.635 4.635 0 0 0-1.043-2.789c-.645-.803-1.567-1.448-2.692-1.838Z" fill="currentColor"/></svg>
